pix_core/f/draw.svg

<svg fill="none" preserveAspectRatio="xMinYMid meet" viewBox="0 0 24 24" xmlns="http://www.w3.org/2000/svg"><g fill="#fff"><path d="m7.92314 8.48501c.48093-.12024.85918-.16847 1.12596-.15028.27177.01854.3148.09406.31859.10071.01648.02884.07141.1804-.07059.5993-.13349.39377-.41101.93285-.8844 1.64736-.17426.1761-.31395.3315-.40642.4658-.04784.0695-.10482.1639-.13651.2742-.03282.1143-.05559.3154.07715.5051.12136.1734.29719.2251.38416.2427.09556.0193.18928.0186.26045.0148.14443-.0078.3187-.0372.48727-.0679.05569-.0101.11298-.0207.1717-.0316l.00114-.0002c.7088-.1314 1.62426-.3012 2.42896-.0999.1717.0429.2609.0854.3028.1115-.008.031-.026.0837-.0662.1642-.063.1259-.157.2753-.2813.4619-.0403.0604-.0835.1239-.1287.1906-.4838.7128-1.2053 1.7759-1.2053 3.0867 0 .8122.4125 1.45.9812 1.8766.5603.4202 1.2851.6498 1.9938.6853.7073.0353 1.4522-.1207 2.035-.5383.6019-.4314.99-1.1151.99-2.0236 0-.2761-.2239-.5-.5-.5-.2762 0-.5.2239-.5.5 0 .5915-.237.9703-.5725 1.2108-.3548.2542-.8599.3794-1.4026.3523-.5413-.0271-1.0665-.2036-1.4437-.4865-.3688-.2766-.5812-.6388-.5812-1.0766 0-.988.5467-1.8011 1.0475-2.5459.0399-.0593.0795-.1182.1185-.1767.1256-.1884.2504-.3828.3437-.5694.0903-.1806.1778-.4046.1778-.6455 0-.2736-.1127-.5207-.3309-.7077-.1949-.1672-.4538-.2695-.7353-.3399-.896-.224-1.8676-.0919-2.55366.0308.42652-.663.71626-1.22264.87466-1.6899.1704-.50293.2253-1.00772-.0082-1.41638-.24665-.43165-.70474-.57412-1.11885-.60237-.42072-.0287-.91747.04805-1.43654.17781-.2679.06698-.43078.33844-.36381.60634.06698.2679.33845.43078.60634.36381z"/><path clip-rule="evenodd" d="m19.5 19v-10.17157c0-.66304-.2634-1.29893-.7322-1.76777l-3.8285-3.82843c-.4688-.46884-1.1047-.73223-1.7677-.73223h-6.1716c-1.38071 0-2.5 1.11929-2.5 2.5v14c0 1.3807 1.11929 2.5 2.5 2.5h10c1.3807 0 2.5-1.1193 2.5-2.5zm-12.5-15.5c-.82843 0-1.5.67157-1.5 1.5v14c0 .8284.67157 1.5 1.5 1.5h10c.8284 0 1.5-.6716 1.5-1.5v-10c0-.27614-.2239-.5-.5-.5h-3c-.8284 0-1.5-.67157-1.5-1.5v-3c0-.27614-.2239-.5-.5-.5zm10.7929 4-3.2929-3.29289v2.79289c0 .27614.2239.5.5.5z" fill-rule="evenodd"/></g></svg>

<svg viewBox="0 0 24 24" fill="none" xmlns="http://www.w3.org/2000/svg" preserveAspectRatio="xMinYMid meet">
<path d="M7.92314 8.48501C8.40407 8.36477 8.78232 8.31654 9.0491 8.33473C9.32087 8.35327 9.3639 8.42879 9.36769 8.43544C9.38417 8.46428 9.4391 8.61584 9.2971 9.03474C9.16361 9.42851 8.88609 9.96759 8.4127 10.6821C8.23844 10.8582 8.09875 11.0136 8.00628 11.1479C7.95844 11.2174 7.90146 11.3118 7.86977 11.4221C7.83695 11.5364 7.81418 11.7375 7.94692 11.9272C8.06828 12.1006 8.24411 12.1523 8.33108 12.1699C8.42664 12.1892 8.52036 12.1885 8.59153 12.1847C8.73596 12.1769 8.91023 12.1475 9.0788 12.1168C9.13449 12.1067 9.19178 12.0961 9.2505 12.0852L9.25164 12.085C9.96044 11.9536 10.8759 11.7838 11.6806 11.9851C11.8523 12.028 11.9415 12.0705 11.9834 12.0966C11.9754 12.1276 11.9574 12.1803 11.9172 12.2608C11.8542 12.3867 11.7602 12.5361 11.6359 12.7227C11.5956 12.7831 11.5524 12.8466 11.5072 12.9133C11.0234 13.6261 10.3019 14.6892 10.3019 16C10.3019 16.8122 10.7144 17.45 11.2831 17.8766C11.8434 18.2968 12.5682 18.5264 13.2769 18.5619C13.9842 18.5972 14.7291 18.4412 15.3119 18.0236C15.9138 17.5922 16.3019 16.9085 16.3019 16C16.3019 15.7239 16.078 15.5 15.8019 15.5C15.5257 15.5 15.3019 15.7239 15.3019 16C15.3019 16.5915 15.0649 16.9703 14.7294 17.2108C14.3746 17.465 13.8695 17.5902 13.3268 17.5631C12.7855 17.536 12.2603 17.3595 11.8831 17.0766C11.5143 16.8 11.3019 16.4378 11.3019 16C11.3019 15.012 11.8486 14.1989 12.3494 13.4541C12.3893 13.3948 12.4289 13.3359 12.4679 13.2774C12.5935 13.089 12.7183 12.8946 12.8116 12.708C12.9019 12.5274 12.9894 12.3034 12.9894 12.0625C12.9894 11.7889 12.8767 11.5418 12.6585 11.3548C12.4636 11.1876 12.2047 11.0853 11.9232 11.0149C11.0272 10.7909 10.0556 10.923 9.36954 11.0457C9.79606 10.3827 10.0858 9.82306 10.2442 9.3558C10.4146 8.85287 10.4695 8.34808 10.236 7.93942C9.98935 7.50777 9.53126 7.3653 9.11715 7.33705C8.69643 7.30835 8.19968 7.3851 7.68061 7.51486C7.41271 7.58184 7.24983 7.8533 7.3168 8.1212C7.38378 8.3891 7.65525 8.55198 7.92314 8.48501Z" fill="#fff"/>
<path fill-rule="evenodd" clip-rule="evenodd" d="M19.5 19V8.82843C19.5 8.16539 19.2366 7.5295 18.7678 7.06066L14.9393 3.23223C14.4705 2.76339 13.8346 2.5 13.1716 2.5H7C5.61929 2.5 4.5 3.61929 4.5 5V19C4.5 20.3807 5.61929 21.5 7 21.5H17C18.3807 21.5 19.5 20.3807 19.5 19ZM7 3.5C6.17157 3.5 5.5 4.17157 5.5 5V19C5.5 19.8284 6.17157 20.5 7 20.5H17C17.8284 20.5 18.5 19.8284 18.5 19V9C18.5 8.72386 18.2761 8.5 18 8.5H15C14.1716 8.5 13.5 7.82843 13.5 7V4C13.5 3.72386 13.2761 3.5 13 3.5H7ZM17.7929 7.5L14.5 4.20711V7C14.5 7.27614 14.7239 7.5 15 7.5H17.7929Z" fill="#fff"/>
</svg>
